src/assets/icons/furniture.svg

<svg xmlns="http://www.w3.org/2000/svg" viewBox="0 0 24 30"><path d="M21.58 13A2.503 2.503 0 0 0 24 10.5C24 9.122 22.878 8 21.5 8c-.17 0-.337.015-.5.044V6.5C21 4.02 18.98 2 16.5 2h-9C5.02 2 3 4.02 3 6.5v1.544A2.843 2.843 0 0 0 2.5 8 2.503 2.503 0 0 0 0 10.5 2.503 2.503 0 0 0 2.42 13c.116.083.42.437.53 1.066A2.502 2.502 0 0 0 1 16.5c0 1.207.86 2.217 2 2.45v1.55c0 .827.673 1.5 1.5 1.5h1c.827 0 1.5-.673 1.5-1.5V19h10v1.5c0 .827.673 1.5 1.5 1.5h1c.827 0 1.5-.673 1.5-1.5v-1.55c1.14-.233 2-1.244 2-2.45a2.502 2.502 0 0 0-1.95-2.434c.11-.63.414-.982.53-1.067zM23 10.5c0 .827-.673 1.5-1.5 1.5-.528 0-1.296.78-1.466 2h-2.01c.193-2.176 1.594-5 3.476-5 .827 0 1.5.673 1.5 1.5zm-19-4C4 4.57 5.57 3 7.5 3h9C18.43 3 20 4.57 20 6.5v1.914c-1.725.98-2.823 3.526-2.98 5.586H6.98C6.823 11.94 5.725 9.393 4 8.414V6.5zM2.5 12c-.827 0-1.5-.673-1.5-1.5S1.673 9 2.5 9c1.882 0 3.283 2.824 3.477 5h-2.01c-.172-1.22-.94-2-1.467-2zM6 20.5a.5.5 0 0 1-.5.5h-1a.5.5 0 0 1-.5-.5V19h2v1.5zm13.5.5h-1a.5.5 0 0 1-.5-.5V19h2v1.5a.5.5 0 0 1-.5.5zm2.5-4.5c0 .827-.673 1.5-1.5 1.5h-17c-.827 0-1.5-.673-1.5-1.5S2.673 15 3.5 15h17c.827 0 1.5.673 1.5 1.5z"/><path d="M7 8.5a.5.5 0 0 0 .5.5c.288 0 .646-.185 1-.45.354.265.712.45 1 .45a.504.504 0 0 0 .504-.5c0-.276-.22-.5-.497-.5-.068-.008-.164-.06-.268-.13.433-.488.76-1.023.76-1.37 0-.276-.223-.513-.5-.513s-.498.21-.498.486c-.03.15-.244.44-.504.73C8.24 6.918 8.03 6.637 8 6.5a.5.5 0 0 0-1 0c0 .347.327.882.76 1.37a.767.767 0 0 1-.265.13.5.5 0 0 0-.495.5zM14 8.5a.5.5 0 0 0 .5.5c.288 0 .646-.185 1-.45.354.265.712.45 1 .45a.504.504 0 0 0 .504-.5c0-.276-.22-.5-.497-.5-.068-.008-.164-.06-.268-.13.433-.488.76-1.023.76-1.37a.51.51 0 0 0-.5-.513c-.275 0-.498.21-.498.486-.03.15-.244.44-.504.73-.258-.284-.468-.565-.498-.703a.5.5 0 0 0-1 0c0 .347.327.882.76 1.37a.767.767 0 0 1-.265.13.5.5 0 0 0-.495.5z"/><text y="39" font-size="5" font-weight="bold" font-family="'Helvetica Neue', Helvetica, Arial-Unicode, Arial, Sans-serif">Created by icon 54</text><text y="44" font-size="5" font-weight="bold" font-family="'Helvetica Neue', Helvetica, Arial-Unicode, Arial, Sans-serif">from the Noun Project</text></svg>

<svg xmlns="http://www.w3.org/2000/svg" xmlns:xlink="http://www.w3.org/1999/xlink" version="1.1" x="0px" y="0px" viewBox="0 0 24 30" style="enable-background:new 0 0 24 24;" xml:space="preserve"><g><path d="M21.579,12.999C22.921,12.957,24,11.852,24,10.5C24,9.122,22.878,8,21.5,8c-0.171,0-0.337,0.015-0.5,0.044V6.5   C21,4.019,18.981,2,16.5,2h-9C5.019,2,3,4.019,3,6.5v1.544C2.837,8.015,2.671,8,2.5,8C1.122,8,0,9.122,0,10.5   c0,1.353,1.079,2.457,2.421,2.499c0.115,0.084,0.419,0.438,0.529,1.067C1.836,14.318,1,15.312,1,16.5c0,1.207,0.861,2.217,2,2.449   V20.5C3,21.327,3.673,22,4.5,22h1C6.327,22,7,21.327,7,20.5V19h10v1.5c0,0.827,0.673,1.5,1.5,1.5h1c0.827,0,1.5-0.673,1.5-1.5   v-1.551c1.139-0.232,2-1.243,2-2.449c0-1.188-0.836-2.182-1.949-2.434C21.16,13.437,21.464,13.084,21.579,12.999z M23,10.5   c0,0.827-0.673,1.5-1.5,1.5c-0.528,0-1.296,0.78-1.466,2h-2.011c0.194-2.176,1.595-5,3.477-5C22.327,9,23,9.673,23,10.5z M4,6.5   C4,4.57,5.57,3,7.5,3h9C18.43,3,20,4.57,20,6.5v1.914c-1.725,0.98-2.823,3.526-2.98,5.586H6.98C6.823,11.939,5.725,9.393,4,8.414   V6.5z M2.5,12C1.673,12,1,11.327,1,10.5S1.673,9,2.5,9c1.882,0,3.283,2.824,3.477,5H3.966C3.795,12.78,3.028,12,2.5,12z M6,20.5   C6,20.776,5.776,21,5.5,21h-1C4.224,21,4,20.776,4,20.5V19h2V20.5z M19.5,21h-1c-0.276,0-0.5-0.224-0.5-0.5V19h2v1.5   C20,20.776,19.776,21,19.5,21z M22,16.5c0,0.827-0.673,1.5-1.5,1.5h-17C2.673,18,2,17.327,2,16.5S2.673,15,3.5,15h3h11h3   C21.327,15,22,15.673,22,16.5z"/><path d="M7,8.5C7,8.776,7.224,9,7.5,9c0.288,0,0.646-0.185,1-0.449C8.854,8.815,9.212,9,9.5,9c0.276,0,0.503-0.224,0.504-0.5   c0-0.276-0.221-0.5-0.497-0.5C9.439,7.992,9.343,7.939,9.239,7.87C9.673,7.382,10,6.847,10,6.5c0-0.276-0.223-0.513-0.499-0.513   s-0.499,0.21-0.499,0.486c-0.031,0.15-0.244,0.441-0.504,0.729C8.24,6.919,8.03,6.638,8,6.5C8,6.224,7.776,6,7.5,6S7,6.224,7,6.5   c0,0.347,0.327,0.882,0.761,1.37C7.658,7.938,7.563,7.991,7.495,8C7.221,8.002,7,8.226,7,8.5z"/><path d="M14,8.5C14,8.776,14.224,9,14.5,9c0.288,0,0.646-0.185,1-0.449C15.854,8.815,16.212,9,16.5,9   c0.276,0,0.503-0.224,0.504-0.5c0-0.276-0.221-0.5-0.497-0.5c-0.068-0.008-0.164-0.061-0.268-0.13C16.673,7.382,17,6.847,17,6.5   c0-0.276-0.223-0.513-0.499-0.513c-0.276,0-0.499,0.21-0.499,0.486c-0.031,0.15-0.244,0.441-0.504,0.729   C15.24,6.919,15.03,6.638,15,6.5C15,6.224,14.776,6,14.5,6S14,6.224,14,6.5c0,0.347,0.327,0.882,0.761,1.37   C14.658,7.938,14.563,7.991,14.495,8C14.221,8.002,14,8.226,14,8.5z"/></g><text x="0" y="39" fill="#000000" font-size="5px" font-weight="bold" font-family="'Helvetica Neue', Helvetica, Arial-Unicode, Arial, Sans-serif">Created by icon 54</text><text x="0" y="44" fill="#000000" font-size="5px" font-weight="bold" font-family="'Helvetica Neue', Helvetica, Arial-Unicode, Arial, Sans-serif">from the Noun Project</text></svg>
